!!!OTL: GROSSER GOTT WIR LOBEN DICH
!!!ARE: Europa, Mitteleuropa, Deutschland
!!!SCT: B0738
!!!YEM: Copyright 1995, estate of Helmut Schaffrath.
**kern
*ICvox
*Ivox
*M6/8
*k[f#]
*G:
=1
{4g
8g
4g
8g
=2
8a
8g
8a
4.g}
=3
{4b
8b
8b
8cc
8dd
=4
4dd
8cc
4b
8a}
=5
{4g
8g
4g
8g
=6
8a
8g
8a
4.g}
=7
{4b
8b
8b
8cc
8dd
=8
4dd
8cc
4b
8a}
=9
{8a
8b
8cc
4cc
8a
=10
8b
8cc
8dd
4.dd}
=11
{8ee
8cc
8ee
4dd
8b
=12
8cc
8b
8a
4.g}
==
!!!AGN: Lob -, Dank - Lied, religioes
!!!ONB: ESAC (Essen Associative Code) Database: BOEHME
!!!AMT: compound duple
!!!AIN: vox
!!!EED: Helmut Schaffrath
!!!EEV: 1.0
*-
